X:262
T:B262-  King James's Jig, or The Country Farmer
Q:1/4=120
M:6/4
L:1/4
K:C
G|A3/2B/2cB2c|d2dd3/2e/2f|(eA)dB3/2A/2G|d2dd2G|\
A3/2B/2cB2c|d2dd2f|e3/2A/2dB3/2A/2G|d2dd2||g|\
e3/2f/2gabc'|g2gg2e|a3gec|d2dd2e|\
f3/2g/2a(e/2f/2)gG|cAef2g|e3/2d/2cdGB|d2dd2|]

